image/china-off2.svg

<?xml version="1.0" encoding="UTF-8" standalone="no"?>
<svg width="34" xmlns="http://www.w3.org/2000/svg" fill="none" viewBox="0 0 34 34" height="34">
 <path stroke-linejoin="round" stroke="#303134" stroke-width="2" stroke-linecap="round" d="m15.154 29.308c7.817 0 14.154-6.337 14.154-14.154 0-7.8171-6.337-14.154-14.154-14.154-7.8171 0-14.154 6.3369-14.154 14.154 0 7.817 6.3369 14.154 14.154 14.154z"/>
 <path stroke-linejoin="round" stroke="#303134" stroke-width="2" stroke-linecap="round" d="m33 33l-7.385-7.384"/>
 <path stroke-linejoin="round" stroke="#303134" stroke-width="2" stroke-linecap="round" d="m18.231 9.6158h-9.8462v8.6152h9.8462v-8.6152z"/>
 <path stroke-linejoin="round" stroke="#303134" stroke-width="2" stroke-linecap="round" d="m18.23 13.308h2.814l2.11 1.846v3.077h-4.924v-4.923z"/>
 <path stroke-linejoin="round" stroke="#303134" stroke-width="2" stroke-linecap="round" d="m11.461 21.923c1.02 0 1.847-0.827 1.847-1.846 0-1.02-0.827-1.846-1.847-1.846-1.019 0-1.8458 0.826-1.8458 1.846 0 1.019 0.8268 1.846 1.8458 1.846z"/>
 <path stroke-linejoin="round" stroke="#303134" stroke-width="2" stroke-linecap="round" d="m20.077 21.923c1.019 0 1.846-0.827 1.846-1.846 0-1.02-0.827-1.846-1.846-1.846-1.02 0-1.847 0.826-1.847 1.846 0 1.019 0.827 1.846 1.847 1.846z"/>
</svg>

<svg width="34" height="34" viewBox="0 0 34 34" fill="none" xmlns="http://www.w3.org/2000/svg">
<path d="M15.1538 29.3077C22.9708 29.3077 29.3077 22.9708 29.3077 15.1538C29.3077 7.33689 22.9708 1 15.1538 1C7.33689 1 1 7.33689 1 15.1538C1 22.9708 7.33689 29.3077 15.1538 29.3077Z" stroke="#303134" stroke-width="2" stroke-linecap="round" stroke-linejoin="round"/>
<path d="M32.9998 33.0003L25.6152 25.6157" stroke="#303134" stroke-width="2" stroke-linecap="round" stroke-linejoin="round"/>
<path d="M18.2309 9.61584H8.38477V18.2312H18.2309V9.61584Z" stroke="#303134" stroke-width="2" stroke-linecap="round" stroke-linejoin="round"/>
<path d="M18.2305 13.3079H21.0437L23.1535 15.154V18.2309H18.2305V13.3079Z" stroke="#303134" stroke-width="2" stroke-linecap="round" stroke-linejoin="round"/>
<path d="M11.4614 21.923C12.481 21.923 13.3075 21.0965 13.3075 20.0769C13.3075 19.0573 12.481 18.2307 11.4614 18.2307C10.4418 18.2307 9.61523 19.0573 9.61523 20.0769C9.61523 21.0965 10.4418 21.923 11.4614 21.923Z" stroke="#303134" stroke-width="2" stroke-linecap="round" stroke-linejoin="round"/>
<path d="M20.0766 21.923C21.0962 21.923 21.9228 21.0965 21.9228 20.0769C21.9228 19.0573 21.0962 18.2307 20.0766 18.2307C19.057 18.2307 18.2305 19.0573 18.2305 20.0769C18.2305 21.0965 19.057 21.923 20.0766 21.923Z" stroke="#303134" stroke-width="2" stroke-linecap="round" stroke-linejoin="round"/>
</svg>
